!!!!SEGMENT: pl-wtm--r-730-35-m_moniuszko-stanislaw--la-brigantine-qui-va-tourner.krn
!!!cenid: 18xx:1715
!!!COM: Moniuszko, Stanisław
!!!COM-rismid: pe30008351
!!!CDT: 1819/05/05-1872/06/04
!!!CNT: Polish
!!!OTL: La brigantine qui va tourner
!!!PDT:
!!!AGN: Secular
!!!SMS-siglum: PL-Wtm
!!!SMS-shelfmark: R 730/35/M
!!!SMS-shelfwork: W
!!!SMS-variant:
!!!SMS-altvar:
!!!NIFC-rismid: 1001099847
!!!URL-scan: http://repozytorium.nifc.pl/skany/pl-wtm-nut--r730m-1-43
!!!ONB-nifc: Skan 0039, R 730|35
**kern	**kern	**kern	**text
*part2	*part2	*part1	*part1
*staff3	*staff2	*staff1	*staff1
*Ipiano	*Ipiano	*Ivox	*
*I"Piano	*I"Piano	*I"Canto	*
*	*I'P-no	*I'C.	*
*clefF4	*clefG2	*clefG2	*
*k[b-e-]	*k[b-e-]	*k[b-e-]	*
*B-:	*B-:	*B-:	*
*M6/8	*M6/8	*M6/8	*
=1	=1	=1	=1
4.ryy	4.ryy	2.ryy	.
=	=	=-	=-
4.ryy	4.ryy	.	.
=2	=2	=2	=2
4BB-/	8r	4.f/	La
.	8f/L 8d/	.	.
8r	8f/J 8d/	.	.
*	*tremolo	*	*
!	!	!LO:TX:t=P:problem:caudy wszystkich nut po prawej:global	!
4r	8b-/ 8f/ 8d/L	4b-\	bri-
.	8b-/ 8f/ 8d/	.	.
8r	8b-/ 8f/ 8d/J	8b-\	-gan-
*	*Xtremolo	*	*
=3	=3	=3	=3
4C/	8r	(4.b-/	-ti-
.	8a/L 8e-/	.	.
8r	8a/J 8e-/	.	.
*	*tremolo	*	*
4r	8a/ 8e-/L	4a/)	.
.	8a/ 8e-/	.	.
8r	8a/ 8e-/J	8g/	-ne,
*	*Xtremolo	*	*
=4	=4	=4	=4
4D\	8r	4.f#X/	qui
.	8a/L 8f#X/ 8d/	.	.
8r	8a/J 8f#/ 8d/	.	.
*	*tremolo	*	*
4r	8a/ 8f#/ 8d/L	4ee-\	va
.	8a/ 8f#/ 8d/	.	.
8r	8a/ 8f#/ 8d/J	8dd\	tour-
*	*Xtremolo	*	*
=5	=5	=5	=5
4G\	8r	[4.dd\	-ner,
.	8b-/L 8g/ 8d/	.	.
8r	8b-/J 8g/ 8d/	.	.
*	*tremolo	*	*
4r	8b-/ 8g/ 8d/L	4dd\]	.
.	8b-/ 8g/ 8d/	.	.
8r	8b-/ 8g/ 8d/J	8r	.
*	*Xtremolo	*	*
=6	=6	=6	=6
4E-\	8r	4.dd\	roale,
.	8g/L 8c/	.	.
8r	8g/J 8c/	.	.
*	*tremolo	*	*
4r	8cc/ 8g/ 8c/L	4cc\	et
.	8cc/ 8g/ 8c/	.	.
8r	8cc/ 8g/ 8c/J	8b-\	s'in-
*	*Xtremolo	*	*
=7	=7	=7	=7
4F\	8r	(4.a/	-cli-
.	8a/L 8e-/ 8c/	.	.
8r	8a/J 8e-/ 8c/	.	.
*	*tremolo	*	*
4r	8a/ 8e-/ 8c/L	4g/)	.
.	8a/ 8e-/ 8c/	.	.
8r	8a/ 8e-/ 8c/J	8a/	-ne
*	*Xtremolo	*	*
=8	=8	=8	=8
4BB-/	8r	4.b-/	pour
.	8b-/L 8d/ 8B-/	.	.
8r	8b-/J 8d/ 8B-/	.	.
4BB-/	8r	4g/	m'en-
.	8g/L 8en/ 8c#X/	.	.
8r	8g/J 8e/ 8c#/	8en/	-trai-
!!LO:LB:g=original
=9	=9	=9	=9
!LO:TX:t=P:problem:mixed beam	!	!	!
8BB-/L	8r	[4.f/	-ner.
8B-\	8f/L 8d/	.	.
8B-\J	8f/J 8d/	.	.
*tremolo	*tremolo	*	*
8B-\L	8f/ 8d/L	8f/]	.
8B-\	8f/ 8d/	8r	.
8B-\J	8f/ 8d/J	8f/	O,
*Xtremolo	*Xtremolo	*	*
=10	=10	=10	=10
*^	*	*	*
*	*2\right	*	*	*
8rc	2.E-\	2.g-X/ 2.e-/	4.g-X/	Vier-
8B-/L	.	.	.	.
8B-/J	.	.	.	.
8B-/L	.	.	4b-/	-ge
8B-/	.	.	.	.
8B-/J	.	.	8g-/	Ma-
*v	*v	*	*	*
=11	=11	=11	=11
!	!LO:TX:t=P:problem:mixed beam	!	!
[2.B-\ 2.BB-\	8f/L 8d/	[4.f/	-ri-
.	(8ff\ 8dd\	.	.
.	8dd\J 8b-\	.	.
.	8b-/L 8f/	4f/]	.
.	8f/ 8d/	.	.
.	8a/J 8f/)	8f/	-e!
=12	=12	=12	=12
*^	*	*	*
8B-/L]	2.E-\	2.g-X/ 2.e-/	4.g-X/	pour
8B-/	.	.	.	.
8B-/J	.	.	.	.
8B-/L	.	.	8b-/	moi
8B-/	.	.	8a-X/	prier
8c/J	.	.	8g-/	.
*v	*v	*	*	*
=13	=13	=13	=13
(2.d\ (2.B-\	8r	2.f/	Dieu!
.	8f'/L	.	.
.	8f'/J	.	.
.	(8qg/	.	.
.	8f/L	.	.
.	8en/	.	.
.	8f/J)	.	.
=14	=14	=14	=14
2.c\ 2.A\	8r	4.f#X/	A-
.	8f#X/L 8d/	.	.
.	8f#/J 8d/	.	.
*	*tremolo	*	*
.	8f#/ 8d/L	4e-/	-dieu,
.	8f#/ 8d/	.	.
.	8f#/ 8d/J	8d/	pa-
*	*Xtremolo	*	*
=15	=15	=15	=15
2.B-\ 2.G\	8r	[4.g/	-tri-
.	8g/L 8d/	.	.
.	8g/J 8d/	.	.
.	8qa/	.	.
.	8g/L 8d/	4g/]	.
.	8f#X/ 8d/	.	.
.	8g/J 8d/	8g/	-e!
=16	=16	=16	=16
2.c\ 2.F\	8r	4.a/	Pro-
.	8a/L 8e-/	.	.
.	8a/J 8e-/	.	.
*	*tremolo	*	*
.	8a/ 8e-/L	4g/	-v-en
.	8a/ 8e-/	.	.
.	8a/ 8e-/J	8f/	-ce,
*	*Xtremolo	*	*
=17	=17	=17	=17
*	*	*2\right	*
2.Bn\ 2.D\))	8r	2.ff\	Adieu!
.	8g-X/L 8e-/	.	.
.	8g-/J 8e-/	.	.
.	8g-/L 8e-/	.	.
.	8g-/ 8e-/	.	.
.	8g-/J 8e-/	.	.
!!LO:LB;g=original
=18	=18	=18	=18
*^	*	*	*
[4.B-/	2.E-\	8r	4.ee-\	Pro-
.	.	8g/L 8e-/	.	.
.	.	8g/J 8e-/	.	.
4B-/]	.	8g-X/L 8e-/	4b-\	-ven-
.	.	8g-/ 8e-/	.	.
8A/	.	8g-/J 8e-/	8cc\	-ce,
*v	*v	*	*	*
=19	=19	=19	=19
2.ryy	2.ryy	[2.dd\	Adieu!
=20	=20	=20	=20
2.ryy	2.ryy	4dd\]	.
.	.	8r	.
.	.	4r	.
.	.	8r	.
==	==	==	==
*-	*-	*-	*-
!!!system-decoration: s1{(s2,s3)}
!!!EED: Leszek Kubiak
!!!EST: 2021-04-21
!!!AIN: 1 piano 1 vox
!!!ENC: Mateusz Solarz
!!!END: 2021-04-01
